files/resources/svgs/general/m-sun.svg

<svg width="20" height="20" viewBox="0 0 20 20" fill="none" xmlns="http://www.w3.org/2000/svg">
<path d="M10 2C10.4142 2 10.75 2.33579 10.75 2.75V4.25C10.75 4.66421 10.4142 5 10 5C9.58579 5 9.25 4.66421 9.25 4.25V2.75C9.25 2.33579 9.58579 2 10 2Z" fill="#0F172A"/>
<path d="M10 15C10.4142 15 10.75 15.3358 10.75 15.75V17.25C10.75 17.6642 10.4142 18 10 18C9.58579 18 9.25 17.6642 9.25 17.25V15.75C9.25 15.3358 9.58579 15 10 15Z" fill="#0F172A"/>
<path d="M10 7C8.34315 7 7 8.34315 7 10C7 11.6569 8.34315 13 10 13C11.6569 13 13 11.6569 13 10C13 8.34315 11.6569 7 10 7Z" fill="#0F172A"/>
<path d="M15.6568 5.40386C15.9497 5.11096 15.9497 4.63609 15.6568 4.3432C15.3639 4.0503 14.889 4.0503 14.5961 4.3432L13.5355 5.40386C13.2426 5.69675 13.2426 6.17162 13.5355 6.46452C13.8284 6.75741 14.3032 6.75741 14.5961 6.46452L15.6568 5.40386Z" fill="#0F172A"/>
<path d="M6.46441 14.5962C6.7573 14.3034 6.7573 13.8285 6.46441 13.5356C6.17151 13.2427 5.69664 13.2427 5.40375 13.5356L4.34309 14.5962C4.05019 14.8891 4.05019 15.364 4.34309 15.6569C4.63598 15.9498 5.11085 15.9498 5.40375 15.6569L6.46441 14.5962Z" fill="#0F172A"/>
<path d="M18 10C18 10.4142 17.6642 10.75 17.25 10.75H15.75C15.3358 10.75 15 10.4142 15 10C15 9.58579 15.3358 9.25 15.75 9.25H17.25C17.6642 9.25 18 9.58579 18 10Z" fill="#0F172A"/>
<path d="M5 10C5 10.4142 4.66421 10.75 4.25 10.75H2.75C2.33579 10.75 2 10.4142 2 10C2 9.58579 2.33579 9.25 2.75 9.25H4.25C4.66421 9.25 5 9.58579 5 10Z" fill="#0F172A"/>
<path d="M14.596 15.6568C14.8889 15.9497 15.3638 15.9497 15.6567 15.6568C15.9496 15.3639 15.9496 14.889 15.6567 14.5961L14.596 13.5355C14.3031 13.2426 13.8283 13.2426 13.5354 13.5355C13.2425 13.8284 13.2425 14.3032 13.5354 14.5961L14.596 15.6568Z" fill="#0F172A"/>
<path d="M5.40363 6.46441C5.69653 6.7573 6.1714 6.7573 6.46429 6.46441C6.75719 6.17151 6.75719 5.69664 6.46429 5.40375L5.40363 4.34309C5.11074 4.05019 4.63587 4.05019 4.34297 4.34309C4.05008 4.63598 4.05008 5.11085 4.34297 5.40375L5.40363 6.46441Z" fill="#0F172A"/>
</svg>

<svg xmlns="http://www.w3.org/2000/svg" viewBox="0 0 20 20" fill="currentColor" aria-hidden="true">
  <path d="M10 2a.75.75 0 01.75.75v1.5a.75.75 0 01-1.5 0v-1.5A.75.75 0 0110 2zM10 15a.75.75 0 01.75.75v1.5a.75.75 0 01-1.5 0v-1.5A.75.75 0 0110 15zM10 7a3 3 0 100 6 3 3 0 000-6zM15.657 5.404a.75.75 0 10-1.06-1.06l-1.061 1.06a.75.75 0 001.06 1.06l1.06-1.06zM6.464 14.596a.75.75 0 10-1.06-1.06l-1.06 1.06a.75.75 0 001.06 1.06l1.06-1.06zM18 10a.75.75 0 01-.75.75h-1.5a.75.75 0 010-1.5h1.5A.75.75 0 0118 10zM5 10a.75.75 0 01-.75.75h-1.5a.75.75 0 010-1.5h1.5A.75.75 0 015 10zM14.596 15.657a.75.75 0 001.06-1.06l-1.06-1.061a.75.75 0 10-1.06 1.06l1.06 1.06zM5.404 6.464a.75.75 0 001.06-1.06l-1.06-1.06a.75.75 0 10-1.061 1.06l1.06 1.06z"/>
</svg>
